!!!SOCIAL_FUNCTION: hand game and ghost dance songs
!!!PDT:	1929
!!!LING_GROUP: Caddoan
!!!LANG: Non-Tone
!!!REG: Oklahoma
!!!COM: Anon.
!!!OTL: Hand Game Guessing Song (b)
!!!ODT: <1920//
!!!MPN: Horse Chief [Spotted Horse Chief]
!!!MLC: Pawnee, Oklahoma, United States of America
!! Song was recorded either 1919 or 1920.
!!!AGN: monody
!!!AMT: simple triple
!!!RWG: Transcribed pitches, durations, and meters are only approximate.
!! Drum not recorded
**kern
*ICvox
*Imale
*clefF4
*k[b-]
*[A,A]
*>A
*M3/4
*MM60
16F
=1
12c
12B-
12G
16c
16c
16c
16c
8c
16r
16B-
=2
12B-
12G
12F
16B-
16B-
16B-
16B-
8B-
16r
16G
=3
12B-
12G
12F
16F
16F
16F
16F
8F
16r
16G
=4
12B-
12G
12F
16G
16G
16G
16G
8G
16r
16F
=5
12B-
12G
12F
16F
16F
16F
16F
8F
16r
16D
=6
12F
12G
12F
16F
16F
16F
16F
8F
16r
16D
=7
12F
12G
12F
16F
16F
16F
16F
8F
16r
==:|!
*-
!!!HAO: [no description]
!!!HTX: [no free translation]
!!!CNT: Pawnee
!!!TXO: Pawnee
!!!OCY: United States
!!!OCL: Frances Densmore
!!!YOR: Frances Densmore, "Pawnee Music"
!!!YOR: Bulletin 93, page 72, No. 41
!!!PPR: Smithsonian Institution, Bureau of American Ethnology
!!!PPR: Government Printing Office
!!!PDT: 1926
!!!PPP: Washington, DC, United States of America
!!!YEC: Electronic Copyright 2000 David Huron
!!!YER: September 2000
!!!YEN: United States of America
!!!ENC: David Huron
!!!RDT: September 3, 2000
!!!EEV: Release 1.0
!!!AIN: vox
